X: 450
U:~=!turn!
U:w=!wedge!
M:C
L:1/8
K:A
cee>f Te>fec | TBABc ~A>BAE | FfTf>a (f/e/).d/.c/ (d/c/).B/.A/ | (B/c/d/c/) (d/c/B/A/) TB2 A2 |
cee>f Te>fec | B>ABc [C/A/]B/[A,/A/]E/ | FAEA DAHC>f | {/f}Tec {/c}TBA TB2 A2 |]


